assets/logo-wbtc.svg

<svg height="60" viewBox="0 0 199 60" width="199" xmlns="http://www.w3.org/2000/svg" xmlns:xlink="http://www.w3.org/1999/xlink"><mask id="a" fill="#fff"><path d="m0 .4h58.9233607v59.0594595h-58.9233607z" fill="#fff" fill-rule="evenodd"/></mask><g fill="none" fill-rule="evenodd"><path d="m100.546341 45.0215135h-5.1340922l-6.557832-17.6486486-6.5470461 17.6702702h-5.1340921l-9.6533875-29.6054054h6.6926558l5.7812466 17.7681081 6.7411924-17.7897297h4.1256098l6.8328726 17.7681081 5.6949597-17.7843243h6.730406z" fill="#fff"/><g transform="translate(0 .140541)"><path d="m128.346911 39.3837297c2.955338 0 4.702655-1.4864865 4.702655-3.9027027 0-2.4156756-1.758103-3.9729729-4.713441-3.9729729h-7.550136v7.8756756zm-7.550136-12.6594594h6.805908c1.984607 0 3.305881-1.2108108 3.300488-3.1243244 0-1.7945945-1.326667-2.9243243-3.311274-2.9189189l-6.805908-.0000193zm18.62187 9.2864865c0 5.3027027-3.953035 8.8162162-10.3329 8.827027h-14.663441l-.043144-29.6324324h13.886856c5.560136 0 9.027805 3.027027 9.033198 7.7459459.086827 2.1118919-.83429 4.1389189-2.480759 5.4594595 2.905724 1.3897297 4.712363 4.3751351 4.60019 7.6z" fill="#fff"/><path d="m157.776422 20.7838919.032358 24.0162162h-6.417616l-.032357-24.0162162h-8.866016v-5.5945946l24.144254-.0324324v5.6162162z" fill="#fff"/><g fill="#d4d3d7"><path d="m48.0458805 12.7945405-1.6178862 1.6216217c8.0015258 8.7708108 8.0015258 22.2129729 0 30.9837837l1.6178862 1.6216217c8.9053848-9.6772973 8.9053848-24.5870271 0-34.2648649z"/><path d="m14.0162873 12.9352432c8.750607-8.0205405 22.1618048-8.0205405 30.9124119 0l1.6178862-1.6216216c-9.6555447-8.92594592-24.5303903-8.92594592-34.185935 0z"/><path d="m12.506368 45.4162162c-7.99181841-8.7686486-7.99181841-22.1989189 0-30.9675676l-1.6178862-1.6216216c-8.90538478 9.6778379-8.90538478 24.5870271 0 34.2648649z"/><path d="m44.9125203 46.9132973c-8.750607 8.0205405-22.1618049 8.0205405-30.9124119 0l-1.6178862 1.6216216c9.6555447 8.925946 24.5303903 8.925946 34.185935 0z"/></g><path d="m34.3639024 25.8c0 3.2432432-5.0585907 2.8486486-6.665691 2.8486486v-5.7135135c1.6071003 0 6.665691-.5081081 6.665691 2.8648649m1.3212738 8.8702703c0 3.5459459-6.0616803 3.1405405-7.9923578 3.1405405v-6.2918919c1.9306775.0054054 7.9923578-.5513513 7.9923578 3.1513514m3.9907859-10.1513514c-.3235773-3.3837838-3.2357724-4.5189189-6.9191599-4.8648648v-4.6648649h-2.8474797v4.572973c-.7496206 0-1.5154201 0-2.2758266.027027v-4.6h-2.8313008v4.6918919h-1.8120325-3.9584282v3.054054s2.103252-.0378378 2.0708943 0c.7884499-.087027 1.5035556.4675676 1.6178862 1.2540541v12.8486486c-.0345149.5572973-.5128699.9805406-1.0688835.9464865-.0032357 0-.0064715 0-.0097073-.0005405.0377507.0324324-2.0708943 0-2.0708943 0l-.5662602 3.4108108h3.7103524 2.0385365v4.7675676h2.8474797v-4.6972973h2.2758266v4.6756756h2.8528726v-4.7135135c4.8105149-.2918919 8.1649322-1.4810811 8.5855827-5.9945946.3397561-3.6324324-1.3644174-5.254054-4.0878591-5.9081081 1.6556368-.8432432 2.6964769-2.3297297 2.4484011-4.8054054" fill="#fff"/><path d="m29.4562604 2.7027027c-14.9934905.00918919-27.14111921 12.1989189-27.13195119 27.227027.00916803 15.0281081 12.17081839 27.2037838 27.16430899 27.1945946 14.9832439-.0086486 27.1260189-12.1827027 27.1319512-27.2-.0177968-15.0259459-12.1729756-27.19945944-27.164309-27.20540538zm0 56.7567568c-16.2710813-.0027027-29.4595501-13.225946-29.45631433-29.5351352s13.19601893-29.52756754 29.46710023-29.5243243c16.2673063.00324324 29.4536179 13.2194595 29.4563144 29.5243243-.0177967 16.3043243-13.2003333 29.5172973-29.4671003 29.5351352z" fill="#fff" mask="url(#a)"/><path d="m192.145448 35.5835676c-1.504095 2.5189189-4.244794 4.0308108-7.172629 3.9567567-5.096341 0-8.990054-4.1189189-9.00084-9.5405405-.010786-5.4210811 3.877534-9.5567568 8.973875-9.5675676 2.919745-.0745946 5.65667 1.4227027 7.172629 3.9243243l6.471545-1.3459459c-2.38854-5.2162162-7.550136-8.4702703-13.633388-8.4643243-8.416783-.0783784-15.303046 6.6967567-15.381244 15.1329729-.001078.1086487-.001078.2172973.00054.325946-.074963 8.4183784 6.672701 15.3037838 15.071688 15.3794594.108398.0005406.216797.0005406.325195-.0005405 6.029322 0 11.152629-3.1897297 13.542247-8.4762162z" fill="#fff"/></g></g></svg>

<?xml version="1.0" encoding="UTF-8"?>
<svg width="199px" height="60px" viewBox="0 0 199 60" version="1.1" xmlns="http://www.w3.org/2000/svg" xmlns:xlink="http://www.w3.org/1999/xlink">
    <!-- Generator: Sketch 52.2 (67145) - http://www.bohemiancoding.com/sketch -->
    <title>Logo - WBTC</title>
    <desc>Created with Sketch.</desc>
    <defs>
        <polygon id="path-1" points="0 0.4 58.9233607 0.4 58.9233607 59.4594595 0 59.4594595"></polygon>
    </defs>
    <g id="Designs" stroke="none" stroke-width="1" fill="none" fill-rule="evenodd">
        <g id="Home" transform="translate(-50.000000, -50.000000)">
            <g id="HERO">
                <g id="Group-14" transform="translate(50.000000, 50.000000)">
                    <g id="Logo---WBTC">
                        <polygon id="Fill-1" fill="#FFFFFF" points="100.546341 45.0215135 95.4122488 45.0215135 88.8544168 27.3728649 82.3073707 45.0431351 77.1732786 45.0431351 67.5198911 15.4377297 74.2125469 15.4377297 79.9937935 33.2058378 86.7349859 15.4161081 90.8605957 15.4161081 97.6934683 33.1842162 103.388428 15.3998919 110.118834 15.3998919"></polygon>
                        <g id="Group-21" transform="translate(0.000000, 0.140541)">
                            <path d="M128.346911,39.3837297 C131.302249,39.3837297 133.049566,37.8972432 133.049566,35.481027 C133.049566,33.0653514 131.291463,31.5080541 128.336125,31.5080541 L120.785989,31.5080541 L120.785989,39.3837297 L128.346911,39.3837297 Z M120.796775,26.7242703 L127.602683,26.7242703 C129.58729,26.7242703 130.908564,25.5134595 130.903171,23.5999459 C130.903171,21.8053514 129.576504,20.6756216 127.591897,20.681027 L120.785989,20.6810077 L120.796775,26.7242703 Z M139.418645,36.0107568 C139.418645,41.3134595 135.46561,44.826973 129.085745,44.8377838 L114.422304,44.8377838 L114.37916,15.2053514 L128.266016,15.2053514 C133.826152,15.2053514 137.293821,18.2323784 137.299214,22.9512973 C137.386041,25.0631892 136.464924,27.0902162 134.818455,28.4107568 C137.724179,29.8004865 139.530818,32.7858919 139.418645,36.0107568 Z" id="Fill-2" fill="#FFFFFF"></path>
                            <polygon id="Fill-4" fill="#FFFFFF" points="157.776422 20.7838919 157.80878 44.8001081 151.391164 44.8001081 151.358807 20.7838919 142.492791 20.7838919 142.492791 15.1892973 166.637045 15.1568649 166.637045 20.7730811"></polygon>
                            <path d="M48.0458805,12.7945405 L46.4279943,14.4161622 C54.4295201,23.186973 54.4295201,36.6291351 46.4279943,45.3999459 L48.0458805,47.0215676 C56.9512653,37.3442703 56.9512653,22.4345405 48.0458805,12.7567027 L48.0458805,12.7945405 Z" id="Fill-6" fill="#D4D3D7"></path>
                            <path d="M14.0162873,12.9352432 C22.7668943,4.9147027 36.1780921,4.9147027 44.9286992,12.9352432 L46.5465854,11.3136216 C36.8910407,2.38767568 22.0161951,2.38767568 12.3606504,11.3136216 L14.0162873,12.9352432 Z" id="Fill-8" fill="#D4D3D7"></path>
                            <path d="M12.506368,45.4162162 C4.51454959,36.6475676 4.51454959,23.2172973 12.506368,14.4486486 L10.8884818,12.827027 C1.98309702,22.5048649 1.98309702,37.4140541 10.8884818,47.0918919 L12.506368,45.4162162 Z" id="Fill-10" fill="#D4D3D7"></path>
                            <path d="M44.9125203,46.9132973 C36.1619133,54.9338378 22.7507154,54.9338378 14.0001084,46.9132973 L12.3822222,48.5349189 C22.0377669,57.4608649 36.9126125,57.4608649 46.5681572,48.5349189 L44.9125203,46.9132973 Z" id="Fill-12" fill="#D4D3D7"></path>
                            <path d="M34.3639024,25.8 C34.3639024,29.0432432 29.3053117,28.6486486 27.6982114,28.6486486 L27.6982114,22.9351351 C29.3053117,22.9351351 34.3639024,22.427027 34.3639024,25.8 M35.6851762,34.6702703 C35.6851762,38.2162162 29.6234959,37.8108108 27.6928184,37.8108108 L27.6928184,31.5189189 C29.6234959,31.5243243 35.6851762,30.9675676 35.6851762,34.6702703 M39.6759621,24.5189189 C39.3523848,21.1351351 36.4401897,20 32.7568022,19.6540541 L32.7568022,14.9891892 L29.9093225,14.9891892 L29.9093225,19.5621622 C29.1597019,19.5621622 28.3939024,19.5621622 27.6334959,19.5891892 L27.6334959,14.9891892 L24.8021951,14.9891892 L24.8021951,19.6810811 L22.9901626,19.6810811 L19.0317344,19.6810811 L19.0317344,22.7351351 C19.0317344,22.7351351 21.1349864,22.6972973 21.1026287,22.7351351 C21.8910786,22.6481081 22.6061843,23.2027027 22.7205149,23.9891892 L22.7205149,36.8378378 C22.686,37.3951351 22.207645,37.8183784 21.6516314,37.7843243 C21.6483957,37.7843243 21.6451599,37.7843243 21.6419241,37.7837838 C21.6796748,37.8162162 19.5710298,37.7837838 19.5710298,37.7837838 L19.0047696,41.1945946 L22.715122,41.1945946 L24.7536585,41.1945946 L24.7536585,45.9621622 L27.6011382,45.9621622 L27.6011382,41.2648649 L29.8769648,41.2648649 L29.8769648,45.9405405 L32.7298374,45.9405405 L32.7298374,41.227027 C37.5403523,40.9351351 40.8947696,39.7459459 41.3154201,35.2324324 C41.6551762,31.6 39.9510027,29.9783784 37.227561,29.3243243 C38.8831978,28.4810811 39.9240379,26.9945946 39.6759621,24.5189189" id="Fill-14" fill="#FFFFFF"></path>
                            <g id="Group-18">
                                <mask id="mask-2" fill="white">
                                    <use xlink:href="#path-1"></use>
                                </mask>
                                <g id="Clip-17"></g>
                                <path d="M29.4562604,2.7027027 C14.4627699,2.71189189 2.31514119,14.9016216 2.32430921,29.9297297 C2.33347724,44.9578378 14.4951276,57.1335135 29.4886182,57.1243243 C44.4718621,57.1156757 56.6146371,44.9416216 56.6205694,29.9243243 C56.6027726,14.8983784 44.4475938,2.72486486 29.4562604,2.71891892 L29.4562604,2.7027027 Z M29.4562604,59.4594595 C13.1851791,59.4567568 -0.0032897019,46.2335135 -5.39295393e-05,29.9243243 C0.00318184282,13.6151351 13.195965,0.396756757 29.4670463,0.4 C45.7343526,0.403243243 58.9206642,13.6194595 58.9233607,29.9243243 C58.905564,46.2286486 45.7230274,59.4416216 29.4562604,59.4594595 Z" id="Fill-16" fill="#FFFFFF" mask="url(#mask-2)"></path>
                            </g>
                            <path d="M192.145448,35.5835676 C190.641353,38.1024865 187.900654,39.6143784 184.972819,39.5403243 C179.876478,39.5403243 175.982765,35.4214054 175.971979,29.9997838 C175.961193,24.5787027 179.849513,20.443027 184.945854,20.4322162 C187.865599,20.3576216 190.602524,21.8549189 192.118483,24.3565405 L198.590028,23.0105946 C196.201488,17.7943784 191.039892,14.5403243 184.95664,14.5462703 C176.539857,14.4678919 169.653594,21.243027 169.575396,29.6792432 C169.574318,29.7878919 169.574318,29.8965405 169.575936,30.0051892 C169.500973,38.4235676 176.248637,45.308973 184.647624,45.3846486 C184.756022,45.3851892 184.864421,45.3851892 184.972819,45.3841081 C191.002141,45.3841081 196.125448,42.1943784 198.515066,36.9078919 L192.145448,35.5835676 Z" id="Fill-19" fill="#FFFFFF"></path>
                        </g>
                    </g>
                </g>
            </g>
        </g>
    </g>
</svg>
